developer-board.svg

<svg fill="currentColor" viewBox="0 0 24 24"><path d="M22 9V7h-2V5a2 2 0 0 0-2-2H4a2 2 0 0 0-2 2v14a2 2 0 0 0 2 2h14a2 2 0 0 0 2-2v-2h2v-2h-2v-2h2v-2h-2V9zm-4 10H4V5h14zM6 13h5v4H6zm6-6h4v3h-4zM6 7h5v5H6zm6 4h4v6h-4z"/></svg>

<svg  viewBox="0 0 24 24" fill="currentColor"><path  d="M22,9V7H20V5A2,2 0 0,0 18,3H4A2,2 0 0,0 2,5V19A2,2 0 0,0 4,21H18A2,2 0 0,0 20,19V17H22V15H20V13H22V11H20V9H22M18,19H4V5H18V19M6,13H11V17H6V13M12,7H16V10H12V7M6,7H11V12H6V7M12,11H16V17H12V11Z"/></svg>
